static/img/icons/social/ico-Instagram-b.svg

<svg fill="none" height="26" viewBox="0 0 26 26" width="26" xmlns="http://www.w3.org/2000/svg"><g fill="#3a3c42"><path d="m12.9948 2.34253c3.4719 0 3.8794.01548 5.2516.07739 1.2691.05676 1.9552.26831 2.4143.4489.5623.20639 1.073.54178 1.496.97004.4334.41794.7635.92875.9699 1.49633.1754.45921.3921 1.14546.4488 2.41476.0619 1.37249.0774 1.78012.0774 5.25265 0 3.4725-.0155 3.8801-.0774 5.2526-.0567 1.2693-.2683 1.9556-.4488 2.4148-.4385 1.1351-1.331 2.0278-2.4659 2.4663-.4591.1755-1.1452.3922-2.4143.4489-1.3722.062-1.7797.0774-5.2516.0774-3.47178 0-3.87932-.0154-5.25155-.0774-1.26904-.0567-1.95515-.2683-2.41428-.4489-.5623-.2064-1.07302-.5417-1.49603-.97-.43334-.4179-.7635-.9288-.96984-1.4963-.1754-.4592-.39207-1.1455-.44881-2.4148-.06191-1.3725-.07739-1.7801-.07739-5.2526 0-3.47253.01548-3.88016.07739-5.25265.05674-1.2693.26825-1.95555.44881-2.41476.20634-.56242.54166-1.07323.96984-1.49633.41785-.43342.92857-.76365 1.49603-.97004.45913-.17543 1.14524-.39214 2.41428-.4489 1.37223-.06707 1.78493-.07739 5.25155-.07739zm0-2.34253c-3.52853 0-3.97218.0154793-5.35988.0773963-1.38254.0619167-2.32659.2837867-3.15198.6036907-.86667.325063-1.6508.835883-2.3008 1.501493-.66031.65012-1.17103 1.43441-1.501188 2.30125-.319841.82556-.541666 1.76979-.603571 3.15777-.0619048 1.38281-.077381 1.82655-.077381 5.3558 0 3.5293.0154762 3.973.077381 5.361.061905 1.3828.28373 2.3271.603571 3.1578.324998.8668.835718 1.6511 1.501188 2.3012.65.6605 1.43413 1.1713 2.3008 1.5015.82539.3199 1.76944.5418 3.15714.6037s1.82619.0774 5.35992.0774c3.5337 0 3.9722-.0155 5.3599-.0774 1.3826-.0619 2.3266-.2838 3.1572-.6037 1.7436-.6759 3.1262-2.0536 3.8019-3.8027.3199-.8256.5417-1.7698.6036-3.1578s.0774-1.8265.0774-5.361c0-3.53441-.0155-3.97299-.0774-5.36096-.0619-1.38282-.2837-2.32705-.6036-3.15777-.325-.86684-.8357-1.65112-1.5011-2.30125-.65-.66045-1.4342-1.17127-2.3008-1.501492-.8254-.319905-1.7695-.541774-3.1572-.6036914-1.3928-.0567573-1.8365-.0722366-5.3651-.0722366z"/><path d="m12.9942 6.3252c-3.68329 0-6.67535 2.98749-6.67535 6.6767 0 3.6892 2.9869 6.6767 6.67535 6.6767 3.6885 0 6.6754-2.9875 6.6754-6.6767 0-3.68921-2.9869-6.6767-6.6754-6.6767zm0 11.0057c-2.3936 0-4.33329-1.94-4.33329-4.3341 0-2.3942 1.93969-4.33424 4.33329-4.33424 2.3937 0 4.3334 1.94004 4.3334 4.33424 0 2.3941-1.9397 4.3341-4.3334 4.3341z"/><path d="m19.9344 7.61454c.8604 0 1.5579-.69765 1.5579-1.55825 0-.86059-.6975-1.55824-1.5579-1.55824s-1.5579.69765-1.5579 1.55824c0 .8606.6975 1.55825 1.5579 1.55825z"/></g></svg>

<svg alt="instagram" width="26" height="26" viewBox="0 0 26 26" fill="none" xmlns="http://www.w3.org/2000/svg">
<path d="M12.9948 2.34253C16.4667 2.34253 16.8742 2.35801 18.2464 2.41992C19.5155 2.47668 20.2016 2.68823 20.6607 2.86882C21.223 3.07521 21.7337 3.4106 22.1567 3.83886C22.5901 4.2568 22.9202 4.76761 23.1266 5.33519C23.302 5.7944 23.5187 6.48065 23.5754 7.74995C23.6373 9.12244 23.6528 9.53007 23.6528 13.0026C23.6528 16.4751 23.6373 16.8827 23.5754 18.2552C23.5187 19.5245 23.3071 20.2108 23.1266 20.67C22.6881 21.8051 21.7956 22.6978 20.6607 23.1363C20.2016 23.3118 19.5155 23.5285 18.2464 23.5852C16.8742 23.6472 16.4667 23.6626 12.9948 23.6626C9.52302 23.6626 9.11548 23.6472 7.74325 23.5852C6.47421 23.5285 5.7881 23.3169 5.32897 23.1363C4.76667 22.9299 4.25595 22.5946 3.83294 22.1663C3.3996 21.7484 3.06944 21.2375 2.8631 20.67C2.6877 20.2108 2.47103 19.5245 2.41429 18.2552C2.35238 16.8827 2.3369 16.4751 2.3369 13.0026C2.3369 9.53007 2.35238 9.12244 2.41429 7.74995C2.47103 6.48065 2.68254 5.7944 2.8631 5.33519C3.06944 4.77277 3.40476 4.26196 3.83294 3.83886C4.25079 3.40544 4.76151 3.07521 5.32897 2.86882C5.7881 2.69339 6.47421 2.47668 7.74325 2.41992C9.11548 2.35285 9.52818 2.34253 12.9948 2.34253ZM12.9948 0C9.46627 0 9.02262 0.0154793 7.63492 0.0773963C6.25238 0.139313 5.30833 0.361183 4.48294 0.681087C3.61627 1.00615 2.83214 1.51697 2.18214 2.18258C1.52183 2.8327 1.01111 3.61699 0.680952 4.48383C0.361111 5.30939 0.139286 6.25362 0.077381 7.6416C0.0154762 9.02441 0 9.46815 0 12.9974C0 16.5267 0.0154762 16.9704 0.077381 18.3584C0.139286 19.7412 0.361111 20.6855 0.680952 21.5162C1.00595 22.383 1.51667 23.1673 2.18214 23.8174C2.83214 24.4779 3.61627 24.9887 4.48294 25.3189C5.30833 25.6388 6.25238 25.8607 7.64008 25.9226C9.02778 25.9845 9.46627 26 13 26C16.5337 26 16.9722 25.9845 18.3599 25.9226C19.7425 25.8607 20.6865 25.6388 21.5171 25.3189C23.2607 24.643 24.6433 23.2653 25.319 21.5162C25.6389 20.6906 25.8607 19.7464 25.9226 18.3584C25.9845 16.9704 26 16.5319 26 12.9974C26 9.46299 25.9845 9.02441 25.9226 7.63644C25.8607 6.25362 25.6389 5.30939 25.319 4.47867C24.994 3.61183 24.4833 2.82755 23.8179 2.17742C23.1679 1.51697 22.3837 1.00615 21.5171 0.675928C20.6917 0.356023 19.7476 0.134154 18.3599 0.0722366C16.9671 0.0154793 16.5234 0 12.9948 0Z" fill="#3A3C42"/>
<path d="M12.9942 6.3252C9.31091 6.3252 6.31885 9.31269 6.31885 13.0019C6.31885 16.6911 9.30575 19.6786 12.9942 19.6786C16.6827 19.6786 19.6696 16.6911 19.6696 13.0019C19.6696 9.31269 16.6827 6.3252 12.9942 6.3252ZM12.9942 17.3309C10.6006 17.3309 8.66091 15.3909 8.66091 12.9968C8.66091 10.6026 10.6006 8.66256 12.9942 8.66256C15.3879 8.66256 17.3276 10.6026 17.3276 12.9968C17.3276 15.3909 15.3879 17.3309 12.9942 17.3309Z" fill="#3A3C42"/>
<path d="M19.9344 7.61454C20.7948 7.61454 21.4923 6.91689 21.4923 6.05629C21.4923 5.1957 20.7948 4.49805 19.9344 4.49805C19.074 4.49805 18.3765 5.1957 18.3765 6.05629C18.3765 6.91689 19.074 7.61454 19.9344 7.61454Z" fill="#3A3C42"/>
</svg>
